X:1
T:Title
%%score ( 1 2 ) { 3 | 4 }
L:1/8
Q:1/4=105
M:6/8
K:G
V:1 treble nm="Grand Piano, Soprano"
V:2 treble 
V:3 treble nm="Choir Pad, Mosul, 11.11.11 D"
V:4 bass 
V:1
 [GB]2 [GB] [DB]2 [DA] | [DG]3 D3 | [FA]2 [GB] [Ac]2 [GB] | [FA]6 | [DB]2 [DB] [DB]2 [CA] | %5
w: By~Theodore~Edson~Perkins,~1868 * * *|||||
 [EG]3 [CE]3 | D2 [DG] [DA]2 [DF] | [DG]6 | [FA]2 [FA] [FA]2 [GB] | [Ac]2 [GB] [FA]3 | %10
w: |||||
 [GB]2 [Bd] [Ac]2 [GB] | [FA]6 | [FA]2 [FA] [FA]2 [GB] | [Ac]2 [GB] [FA]3 | %14
w: ||||
 [FA]2 [EG] [DF]2 [^CE] | D6 | [Gd]2 [Gd] [Gd]2 [Ge] | d2 B G3 | [FA]2 [GB] [Ac]2 [GB] | %19
w: |||||
 [FA]3- [FA]3/2 z/ [GB]/[Ac]/ | [Gd]2 [Gd] [Gd]2 [Ge] | d2 B G2 [EA] | [DB]2 [DG] [DG]2 [DA] | %23
w: ||||
 [DG]6- | [DG]3 z3 |] %25
w: ||
V:2
 x6 | x6 | x6 | x6 | x6 | x6 | x6 | x6 | x6 | x6 | x6 | x6 | x6 | x6 | x6 | x6 | x6 | G3 z3 | x6 | %19
 x6 | x6 | G3 z3 | x6 | x6 | x6 |] %25
V:3
 D2 D D2 C | B,3 B,3 | D2 D D2 D | D6 | G,2 G, G,2 G, | G,3 G,3 | B,2 B, C2 A, | B,6 | D2 D D2 D | %9
 D3 D3 | D2 D D2 D | D6 | D2 D D2 D | D3 D3 | D2[K:bass] B, A,2 G, | F,6 | B,2 B, B,2[K:treble] C | %17
 B,2 D B,3 | D2 D D2 D | D3- D3/2 z/ D | B,2 B, B,2 C | B,2 D D2 G, | G,2 B, B,2 C | B,6- | %24
 B,3 z3 |] %25
V:4
 G,2 G, G,2 G, | G,3 G,3 | D,2 D, D,2 D, | D,6 | z6 | C,3 C,3 | D,2 D, D,2 D, | G,,6 | %8
 D,2 D, D,2 D, | D,3 D,3 | G,2 G, F,2 G, | D,6 | D,2 D, D,2 D, | D,3 D,3 | D,2 G, z2 A,, | D,6 | %16
 G,2 G, G,2 G, | G,3 G,3 | D,2 D, F,2 G, | D,3- D,3/2 z/ G, | G,2 G, G,2 G, | G,3 B,,2 C, | %22
 D,2 D, D,2 D, | G,,6- | G,,3 z3 |] %25

